gtk-icons/Papirus-GTK/48x48/apps/preferences-desktop-icons.svg

<?xml version="1.0" encoding="UTF-8" standalone="no"?>
<!-- Created with Inkscape (http://www.inkscape.org/) -->
<svg id="svg2817" xmlns:rdf="http://www.w3.org/1999/02/22-rdf-syntax-ns#" xmlns="http://www.w3.org/2000/svg" height="48" width="48" version="1.0" xmlns:cc="http://creativecommons.org/ns#" xmlns:xlink="http://www.w3.org/1999/xlink" xmlns:dc="http://purl.org/dc/elements/1.1/">
 <metadata id="metadata57">
  <rdf:RDF>
   <cc:Work rdf:about="">
    <dc:format>image/svg+xml</dc:format>
    <dc:type rdf:resource="http://purl.org/dc/dcmitype/StillImage"/>
    <dc:title/>
   </cc:Work>
  </rdf:RDF>
 </metadata>
 <defs id="defs2819">
  <linearGradient id="linearGradient4191" y2="3.9509" gradientUnits="userSpaceOnUse" x2="24.239" gradientTransform="translate(0,1)" y1="22.121" x1="24.292">
   <stop id="stop4187" offset="0"/>
   <stop id="stop4189" stop-opacity="0" offset="1"/>
  </linearGradient>
  <linearGradient id="linearGradient4161" y2="3.9509" xlink:href="#linearGradient4191" gradientUnits="userSpaceOnUse" x2="24.239" gradientTransform="matrix(0,1,-1,0,48,-2e-7)" y1="23.946" x1="24.089"/>
 </defs>
 <rect id="rect4203-6" transform="matrix(0,-1,-1,0,0,0)" rx="2" ry="2" height="40" width="40" y="-44" x="-44" fill="#d951c4"/>
 <g id="g4163" opacity=".8" fill="#fff">
  <g id="g4188" transform="translate(0,1)">
   <path id="path4183" d="m22 14a7 7 0 0 1 -7 7 7 7 0 0 1 -7 -7 7 7 0 0 1 7 -7 7 7 0 0 1 7 7z"/>
   <path id="path4186" d="m40 14a7 7 0 0 1 -7 7 7 7 0 0 1 -7 -7 7 7 0 0 1 7 -7 7 7 0 0 1 7 7z"/>
  </g>
  <g id="g4192" transform="translate(0,20)">
   <path id="path4194" d="m22 14a7 7 0 0 1 -7 7 7 7 0 0 1 -7 -7 7 7 0 0 1 7 -7 7 7 0 0 1 7 7z"/>
   <path id="path4196" d="m40 14a7 7 0 0 1 -7 7 7 7 0 0 1 -7 -7 7 7 0 0 1 7 -7 7 7 0 0 1 7 7z"/>
  </g>
 </g>
 <path id="path4026" opacity=".1" d="m6 5c-1.108 0-2 0.892-2 2v17h40v-17c0-1.108-0.892-2-2-2h-36z" fill="url(#linearGradient4191)"/>
 <path id="rect4592" opacity=".2" d="m6 4c-1.108 0-2 0.892-2 2v1c0-1.108 0.892-2 2-2h36c1.108 0 2 0.892 2 2v-1c0-1.108-0.892-2-2-2h-36z" fill="#fff"/>
 <path id="path4597" opacity=".3" d="m6 44c-1.108 0-2-0.892-2-2v-1c0 1.108 0.892 2 2 2h36c1.108 0 2-0.892 2-2v1c0 1.108-0.892 2-2 2h-36z"/>
 <path id="path4159" opacity=".1" fill="url(#linearGradient4161)" d="m44 6c0-1.108-0.892-2-2-2h-18v40h18c1.108 0 2-0.892 2-2z"/>
</svg>

<?xml version="1.0" encoding="UTF-8" standalone="no"?>
<!-- Created with Inkscape (http://www.inkscape.org/) -->

<svg
   xmlns:dc="http://purl.org/dc/elements/1.1/"
   xmlns:cc="http://creativecommons.org/ns#"
   xmlns:rdf="http://www.w3.org/1999/02/22-rdf-syntax-ns#"
   xmlns:svg="http://www.w3.org/2000/svg"
   xmlns="http://www.w3.org/2000/svg"
   xmlns:xlink="http://www.w3.org/1999/xlink"
   xmlns:sodipodi="http://sodipodi.sourceforge.net/DTD/sodipodi-0.dtd"
   xmlns:inkscape="http://www.inkscape.org/namespaces/inkscape"
   id="svg2817"
   height="48"
   width="48"
   version="1.0"
   inkscape:version="0.91 r"
   sodipodi:docname="preferences-desktop-icons.svg">
  <sodipodi:namedview
     pagecolor="#ffffff"
     bordercolor="#666666"
     borderopacity="1"
     objecttolerance="10"
     gridtolerance="10"
     guidetolerance="10"
     inkscape:pageopacity="0"
     inkscape:pageshadow="2"
     inkscape:window-width="1600"
     inkscape:window-height="846"
     id="namedview20"
     showgrid="false"
     inkscape:zoom="1"
     inkscape:cx="24"
     inkscape:cy="24"
     inkscape:window-x="0"
     inkscape:window-y="26"
     inkscape:window-maximized="1"
     inkscape:current-layer="svg2817" />
  <metadata
     id="metadata57">
    <rdf:RDF>
      <cc:Work
         rdf:about="">
        <dc:format>image/svg+xml</dc:format>
        <dc:type
           rdf:resource="http://purl.org/dc/dcmitype/StillImage" />
        <dc:title />
      </cc:Work>
    </rdf:RDF>
  </metadata>
  <defs
     id="defs2819">
    <linearGradient
       id="linearGradient4191"
       y2="3.9509"
       gradientUnits="userSpaceOnUse"
       y1="22.121"
       x2="24.239"
       x1="24.292"
       gradientTransform="translate(0,1)">
      <stop
         id="stop4187"
         offset="0" />
      <stop
         id="stop4189"
         stop-opacity="0"
         offset="1" />
    </linearGradient>
    <linearGradient
       inkscape:collect="always"
       xlink:href="#linearGradient4191"
       id="linearGradient4161"
       gradientUnits="userSpaceOnUse"
       gradientTransform="matrix(0,1,-1,0,48,-2e-7)"
       x1="24.089167"
       y1="23.946499"
       x2="24.239"
       y2="3.9509" />
  </defs>
  <rect
     style="fill:#d951c4"
     x="-44"
     y="-44"
     width="40"
     height="40"
     ry="2"
     rx="2"
     transform="matrix(0,-1,-1,0,0,0)"
     id="rect4203-6" />
  <g
     id="g4163"
     style="fill:#ffffff;fill-opacity:1;opacity:0.8">
    <g
       transform="translate(0,1)"
       id="g4188"
       style="fill:#ffffff;fill-opacity:1">
      <path
         id="path4183"
         d="m 22,14 a 7,7 0 0 1 -7,7 7,7 0 0 1 -7,-7 7,7 0 0 1 7,-7 7,7 0 0 1 7,7 z"
         inkscape:connector-curvature="0"
         style="fill:#ffffff;fill-opacity:1" />
      <path
         id="path4186"
         d="m 40,14 a 7,7 0 0 1 -7,7 7,7 0 0 1 -7,-7 7,7 0 0 1 7,-7 7,7 0 0 1 7,7 z"
         inkscape:connector-curvature="0"
         style="fill:#ffffff;fill-opacity:1" />
    </g>
    <g
       id="g4192"
       transform="translate(0,20)"
       style="fill:#ffffff;fill-opacity:1">
      <path
         id="path4194"
         d="m 22,14 a 7,7 0 0 1 -7,7 7,7 0 0 1 -7,-7 7,7 0 0 1 7,-7 7,7 0 0 1 7,7 z"
         inkscape:connector-curvature="0"
         style="fill:#ffffff;fill-opacity:1" />
      <path
         id="path4196"
         d="m 40,14 a 7,7 0 0 1 -7,7 7,7 0 0 1 -7,-7 7,7 0 0 1 7,-7 7,7 0 0 1 7,7 z"
         inkscape:connector-curvature="0"
         style="fill:#ffffff;fill-opacity:1" />
    </g>
  </g>
  <path
     inkscape:connector-curvature="0"
     style="opacity:0.1;fill:url(#linearGradient4191)"
     d="M 6,5 C 4.892,5 4,5.892 4,7 L 4,24 44,24 44,7 C 44,5.892 43.108,5 42,5 L 6,5 Z"
     id="path4026" />
  <path
     style="opacity:0.2;fill:#ffffff"
     inkscape:connector-curvature="0"
     d="M 6,4 C 4.892,4 4,4.892 4,6 L 4,7 C 4,5.892 4.892,5 6,5 l 36,0 c 1.108,0 2,0.892 2,2 L 44,6 C 44,4.892 43.108,4 42,4 L 6,4 Z"
     id="rect4592" />
  <path
     style="opacity:0.3"
     inkscape:connector-curvature="0"
     d="M 6,44 C 4.892,44 4,43.108 4,42 l 0,-1 c 0,1.108 0.892,2 2,2 l 36,0 c 1.108,0 2,-0.892 2,-2 l 0,1 c 0,1.108 -0.892,2 -2,2 L 6,44 Z"
     id="path4597" />
  <path
     id="path4159"
     d="m 44,5.9999998 c 0,-1.108 -0.892,-2 -2,-2 l -18,0 L 24,44 42,44 c 1.108,0 2,-0.892 2,-2 z"
     style="opacity:0.1;fill:url(#linearGradient4161)"
     inkscape:connector-curvature="0"
     sodipodi:nodetypes="ssccsss" />
</svg>
